Adwaita++/actions/symbolic/font-select-symbolic.svg

<svg height="16" width="16" xmlns="http://www.w3.org/2000/svg">
  <g fill="#474747">
    <path d="m0 5v1c0 .257.13.528.313.719l1.28 1.281-1.279 1.281c-.184.19-.314.462-.314.719v1h1c.31 0 .552-.09.75-.281l2.656-2.719-2.656-2.719c-.198-.19-.44-.281-.75-.281zm16 0v1c0 .257-.13.528-.312.719l-1.282 1.281 1.282 1.281c.182.19.312.462.312.719v1h-1c-.31 0-.552-.09-.75-.281l-2.656-2.719 2.656-2.719c.198-.19.44-.281.75-.281z"/>
    <path d="m7 3.012v2h1.92c-.055 0 .084.159.084.082v.924h-1.004c-1.716 0-3.03 1.125-3.054 2.484-.013.68.305 1.363.86 1.822.556.46 1.316.7 2.194.7h3.004v-5.93c0-1.171-.887-2.082-2.084-2.082zm1 5.006h1.004v1.005h-1.004c-.52 0-.794-.137-.92-.242-.126-.104-.136-.172-.134-.244.003-.144.084-.52 1.054-.52z"/>
  </g>
</svg>

<svg xmlns="http://www.w3.org/2000/svg" width="16" height="16">
    <g font-weight="400" fill="#474747">
        <path d="M0 5v1c0 .257.13.528.313.719L1.593 8 .314 9.281C.13 9.471 0 9.743 0 10v1h1c.31 0 .552-.09.75-.281L4.406 8 1.75 5.281C1.552 5.091 1.31 5 1 5zM16 5v1c0 .257-.13.528-.312.719L14.406 8l1.282 1.281c.182.19.312.462.312.719v1h-1c-.31 0-.552-.09-.75-.281L11.594 8l2.656-2.719c.198-.19.44-.281.75-.281z" style="line-height:normal;-inkscape-font-specification:'Bitstream Vera Sans';text-indent:0;text-align:start;text-decoration-line:none;text-transform:none;marker:none" color="#bebebe" font-family="Bitstream Vera Sans" overflow="visible"/>
        <path d="M7 3.012v2h1.92c-.055 0 .084.159.084.082v.924H8c-1.716 0-3.03 1.125-3.054 2.484-.013.68.305 1.363.86 1.822.556.46 1.316.7 2.194.7h3.004v-5.93c0-1.171-.887-2.082-2.084-2.082zm1 5.006h1.004v1.005H8c-.52 0-.794-.137-.92-.242-.126-.104-.136-.172-.134-.244.003-.144.084-.52 1.054-.52z" style="line-height:normal;font-variant-ligatures:normal;font-variant-position:normal;font-variant-caps:normal;font-variant-numeric:normal;font-variant-alternates:normal;font-feature-settings:normal;text-indent:0;text-align:start;text-decoration-line:none;text-decoration-style:solid;text-decoration-color:#000;text-transform:none;text-orientation:mixed;shape-padding:0;isolation:auto;mix-blend-mode:normal;marker:none" color="#000" font-family="sans-serif" white-space="normal" overflow="visible"/>
    </g>
</svg>
